X: 363
T: Fan shen
L: 1/16
M: 2/4
K: G
B2 B A B A B G [I:setbarnb 1]| 
E6B2 | 
A B A G F2 E B, | 
D8 | 
E2 A2 G2 F E | 
D E G2 B,3 B | 
A B A G F2 E B, | 
D8 |]

@@@ Tune index: 9237
